**kern	**kern
*part1	*part1
*staff2	*staff1
*I"Piano	*
*clefF4	*clefG2
*k[b-e-a-]	*k[b-e-a-]
=1	=1
4E- 4B- 4e-	4g 4ee-
8E-L 8B-	8e-L 8g
8E-J 8B-	8e-J 8g
=	=
4E- 4B-	4e- 4g
8E-L 8B-	8e-L 8g
8E-J 8B-	8e-J 8g
=	=
4E- 4B-	4e- 4g
8E-L 8B-	8e-L 8g
8E-J 8B-	8e-J 8g
=	=
4E- 4B-	4e- 4g
8E-L 8B-	8e-L 8g
8E-J 8B-	8e-J 8g
=	=
4E- 4B-	4e- 4g
8E-L 8B-	8e-L 8g
8E-J 8B-	8e-J 8g
=	=
4F 4B-	4d 4a-
8FL 8B-	8dL 8a-
8FJ 8B-	8dJ 8a-
=	=
*	*^
4F 4B-	4a-	(8B-L
.	.	8c)
8FL 8B-	8a-L	8d
8FJ 8B-	8a-J	8e-J
*	*v	*v
=	=
4F 4B-	4d 4a-
8FL 8B-	8dL 8a-
8FJ 8B-	8dJ 8a-
=	=
*-	*-
!!!system-decoration: {(s1,s2)}
